!!!!SEGMENT: pl-kc--40102-iii-1-saf--001-039_zielenski-mikolaj--offertoria-totius-anni-a-nativitate-domini-usque-ad-purificationem-b-m-v-faelix-namque-es.krn
!!!cenid: 16xx:1517
!!!COM: Zieleński, Mikołaj
!!!COM-rismID: pe30013481
!!!CDT: <1611->1611
!!!CNT: Polish
!!!GTL: Offertoria totius anni
!!!OTL: A Nativitate Domini usque ad Purificationem B. M. V./Faelix namque es
!!!OMV: 039
!!!PDT: 1611
!!!AGN:
!!!SMS-siglum: PL-Kc
!!!SMS-shelfmark: 40102 III/1 Saf.
!!!SMS-shelfwork: 001-039 G
!!!SMS-variant:
!!!SMS-altvar:
!!!NIFC-rismSourceID: 990069886
!!!NIFC-islandoraID:
!!!URL-pdf-islandora:
!!!URL-scan: https://cyfrowe.mnk.pl/dlibra/publication/24235/edition/23926/content?ref=desc @EN{Scan on The National Museum in Krakow Website} @PL{Skany w portalu Biblioteka Cyfrowa Muzeum Narodowego w Krakowie}
!!!ONB-nifc: UWAGA: str. 35-36. Uwaga: W xml metrum 2/1 do źródłowego C| i odpowiednio 3/1 do 3/2
!!!AIN: 4 organ
!!!key: d:dor
**kern	**kern	**kern	**kern
*group1	*group1	*group1	*group1
*part4	*part3	*part2	*part1
*staff4	*staff3	*staff2	*staff1
*I""Organo	*I	*I	*
*Iorgan	*Iorgan	*Iorgan	*Iorgan
*ICklav	*ICklav	*ICklav	*ICklav
*clefF5	*clefC3	*clefF4	*clefC1
*k[]	*k[]	*k[]	*k[]
*d:dor	*d:dor	*d:dor	*d:dor
*M2/1	*M2/1	*M2/1	*M2/1
*met(C|)	*met(C|)	*met(C|)	*met(C|)
=1	=1	=1	=1
!LO:TX:t=P:problem=all/middle&colon; global	!LO:TX:t=P:problem=all/middle&colon; global	!LO:TX:t=P:problem=all/middle&colon; global	!LO:TX:t=P:problem=all/middle&colon; global
!LO:TX:t=P:problem=all\middle&colon; global	!LO:TX:t=P:problem=all\middle&colon; global	!LO:TX:t=P:problem=all\middle&colon; global	!LO:TX:t=P:problem=all\middle&colon; global
!	!	!LO:TX:a:t=Foelix namque cs	!LO:TX:a:t=A Natiuitate Domini vſque ad Purificationem B. M. V. A S.
00r	00r	2.G\	2.dd\
.	.	4G\	4dd\
.	.	2C/	2cc\
.	.	2D/	2a\
=2-	=2-	=2-	=2-
.	.	2.GG/	2.b\
.	.	2G\	2g/
.	.	4G\	4g/
.	.	2E\	2g/
=3	=3	=3	=3
00r	00r	2C/	2a\
!LO:TX:b:t=Partitura Nicolai Zielenski	!	!	!
.	.	2BB/	2b\
.	.	1AA	2.cc\
.	.	.	8dd\
.	.	.	8cc\
=4-	=4-	=4-	=4-
.	.	4GG/	2.b\
.	.	2G\	.
.	.	4D/	2dd\
.	.	2F\	.
.	.	.	4a\
.	.	4C/	2cc\
.	.	4C/	.
=5	=5	=5	=5
00r	00r	2G\	4g/
.	.	.	4g/
.	.	2GG/	2b\
.	.	4r	2a\
.	.	2D/	.
.	.	.	4r
.	.	4AA/	2cc\
=6-	=6-	=6-	=6-
.	.	2C/	.
.	.	.	4g/
.	.	1GG	2b\
.	.	.	2b\
.	.	2AA/	[y2a\
*custos:GG	*custos:d	*custos:BB	*custos:g
!LO:PB:g=original	!LO:PB:g=original	!LO:PB:g=original	!LO:PB:g=original
=7	=7	=7	=7
!	!	!	!LO:N:xstem:cue
0r	0r	2.BB/	4a]
.	.	.	8g/
.	.	.	8f/
.	.	.	2.g/
.	.	4C/	.
.	.	1D	.
.	.	.	8f#X/
.	.	.	8e/
.	.	.	2f#/
=8-	=8-	=8-	=8-
2.GG/	2.d\	1GG	1g
4GG/	4d\	.	.
2CC/	2c/	1r	1r
2DD/	2A/	.	.
=9	=9	=9	=9
2.GG/	2.B/	00r	00r
2GG/	2B/	.	.
4GG/	4B/	.	.
2EE/	2c/	.	.
=10-	=10-	=10-	=10-
2FF/	2d\	.	.
2EE/	2e\	.	.
1DD	2.f\	.	.
.	8g\	.	.
.	8f\	.	.
=11	=11	=11	=11
4CC/	2.e\	00r	00r
2C\	.	.	.
4GG/	2g\	.	.
2BB-X/	.	.	.
.	4d\	.	.
4FF/	2f\	.	.
4FF/	.	.	.
=12-	=12-	=12-	=12-
!LO:TX:t=P:problem=za mało miar w takcie	!	!	!
2CC/	4c/	.	.
.	4c/	.	.
2ryy	2e\	.	.
4r	2.d\	.	.
2GG/	.	.	.
4DD/	[<4f\	.	.
=13	=13	=13	=13
2FF/	4f\]	0r	0r
.	4c/	.	.
1CC	2e\	.	.
.	2e\	.	.
2DD/	2.d\	.	.
=14-	=14-	=14-	=14-
2.EE/	.	1r	1r
.	8c/	.	.
.	8B/	.	.
.	2.c/	.	.
4FF/	.	.	.
1GG	.	4r	4r
.	8B/	2GG/	2dd\
.	8A/	.	.
.	2B/	.	.
.	.	4GG/	4dd\
=15	=15	=15	=15
1CC	1c	2C/	2ee\
.	.	2C/	2cc\
4r	4r	1GG	1dd
2GG/	2d\	.	.
4GG/	4d\	.	.
=16-	=16-	=16-	=16-
2DD/	2f\	1r	1r
2AA/	2e\	.	.
2DD/	2d\	4r	4r
.	.	2D/	2dd\
2r	2r	.	.
.	.	4A\	4cc\
=17	=17	=17	=17
0r	0r	2F\	2cc\
.	.	4G\	4b\
.	.	4E\	4cc#X\
.	.	1D	4dd\
.	.	.	8cc#\
.	.	.	8b\
.	.	.	2a\
=18-	=18-	=18-	=18-
4r	4r	1G	1b
2GG/	2d\	.	.
4GG/	4d\	.	.
2DD/	2f\	4r	4r
.	.	2D/	2ff\
2DD/	2d\	.	.
.	.	4D/	4dd\
=19	=19	=19	=19
1AA	1c	2AA/	2ee\
.	.	2AA/	2cc\
4r	4r	4E\	4b\
2EE/	2e\	2E\	2ee\
4EE/	4e\	4E\	4b\
=20-	=20-	=20-	=20-
2AA/	2e\	2AA/	2cc#X\
4DD/	4f\	4D/	4dd\
4DD/	4f\	4D/	4dd\
2AA/	2e\	2AA/	2ee\
4FF/	4a\	4AA/	4ff\
4FF/	4a\	4AA/	4ff\
=21	=21	=21	=21
2GG/	2.g\	2D/	4ee\
.	.	.	4dd\
2GG/	.	2D/	2.dd\
.	4f\	.	.
1AA	1e	1AA	.
.	.	.	8cc#X\
.	.	.	8b\
.	.	.	2cc#\
=22-	=22-	=22-	=22-
4DD/	4f\	2D/	2dd\
2D\	2d\	.	.
.	.	2r	2r
4AA/	4c/	.	.
2C\	2c/	1r	1r
4GG/	4B/	.	.
4GG/	4B/	.	.
=23	=23	=23	=23
2D\	1G	1r	1r
2DD/	.	.	.
4GG/	4B/	2r	2r
2GG/	2d\	.	.
.	.	4r	4r
4DD/	4f\	2D/	2ff\
=24-	=24-	=24-	=24-
2FF/	2f\	.	.
.	.	4C/	4cc\
1CC	2.g\	4C/	2ee\
.	.	4D/	.
.	.	4E\	2ee\
.	4g\	4C/	.
2DD/	2f\	2F\	2.dd\
=25	=25	=25	=25
2.EE/	2e\	2G\	.
.	.	.	4cc\
.	2.g\	2GG/	2.cc\
4FF/	.	.	.
1GG	.	1GG	.
.	4d\	.	8b\
.	.	.	8a\
.	2g\	.	2b\
=26-	=26-	=26-	=26-
1CC	1e	1C	1cc
=27-	=27-	=27-	=27-
*M3/1	*M3/1	*M3/1	*M3/1
0.r	0.r	1C	1ee
.	.	1C	1ee
.	.	1G	1dd
=28	=28	=28	=28
00.r	00.r	1.A	1.cc
.	.	2A\	2cc\
.	.	1F	1cc
=29-	=29-	=29-	=29-
.	.	1.G	0b
.	.	2F\	.
.	.	1E	1cc#X
=30-	=30-	=30-	=30-
1DD	1d	0D	0dd
1DD	1d	.	.
1AA	1c	1r	1r
=31-	=31-	=31-	=31-
!	!	!	!LO:TX:a:t=3 1
0FF	1.c	0.r	0.r
.	2c/	.	.
1GG	1B	.	.
*custos:DD	*custos:d	*custos:D	*custos:dd
!LO:LB:g=original	!LO:LB:g=original	!LO:LB:g=original	!LO:LB:g=original
=32	=32	=32	=32
1DD	0d	00.r	00.r
1.AA	.	.	.
.	1c#X	.	.
2AA/	.	.	.
=33-	=33-	=33-	=33-
0.DD	0.d	.	.
=34-	=34-	=34-	=34-
1DD	1f	1D	1dd
1DD	1f	1D	1ff
1FF	1f	1C	1cc
=35-	=35-	=35-	=35-
1.CC	1.e	1.C	1.ee
2CC/	2e\	2C/	2ee\
1GG	1g	1D	1dd
=36	=36	=36	=36
0DD	0g	0D	0dd
1DD	1f#X	1D	1a
=37-	=37-	=37-	=37-
*M2/1	*M2/1	*M2/1	*M2/1
*met(C|)	*met(C|)	*met(C|)	*met(C|)
1GG	1g	2D/	2.b\
.	.	2.G\	.
.	.	.	2dd\
=38-	=38-	=38-	=38-
1r	1r	.	.
.	.	4G\	4dd\
.	.	4F#X\	4a\
.	.	4F#\	4a\
2r	2r	2G\	2b\
y2.D\	y2.d\	2GG/	2g/
=39	=39	=39	=39
!LO:N:xstem:cue	!LO:N:xstem:cue	!	!
.	.	1D	1a
4D\	4d\	.	.
4DD/	4A/	.	.
4DD/	4A/	.	.
2GG/	2B/	2r	2r
2GG/	2G/	2.G\	2.dd\
=40-	=40-	=40-	=40-
1DD	1d	.	.
.	.	4G\	4dd\
.	.	4F#X\	4a\
.	.	4F#\	4a\
2r	2r	2G\	2b\
y2.D\	y2.d\	2GG/	2g/
=41	=41	=41	=41
!LO:N:xstem:cue	!LO:N:xstem:cue	!	!
.	.	1D	1a
4D\	4d\	.	.
4DD/	4A/	.	.
4DD/	4A/	.	.
2GG/	2B/	1r	1r
2GG/	2B/	.	.
=42-	=42-	=42-	=42-
2CC/	2c/	0r	0r
1C	1e	.	.
2BB/	2d\	.	.
=43	=43	=43	=43
2AA/	2c/	0r	0r
2GG/	2B/	.	.
2D\	2A/	.	.
1DD/	1d\	.	.
=44-	=44-	=44-	=44-
.	.	0r	0r
2EE/	2c/	.	.
2FF/	4c/	.	.
.	4B/	.	.
2GG/	4B/	.	.
.	8A/	.	.
.	8G/	.	.
=45	=45	=45	=45
2D\	4A/	1r	1r
.	4B/	.	.
2DD/	2A/	.	.
1GG	1B	2r	2r
.	.	4G\	4dd\
.	.	4G\	4dd\
=46-	=46-	=46-	=46-
0r	0r	4.F#X\	4.a\
.	.	8F#\	8a\
.	.	4G\	4b\
.	.	4GG/	4b\
.	.	2C/	2cc\
.	.	2C/	2ee\
=47	=47	=47	=47
00r	00r	2C/	8ee\
.	.	.	8dd\
.	.	.	8ee\
.	.	.	8cc\
.	.	2BB/	8dd\
.	.	.	8cc\
.	.	.	8dd\
.	.	.	8b\
.	.	2AA/	8cc\
.	.	.	8b\
.	.	.	8cc\
.	.	.	8a\
.	.	2GG/	8b\
.	.	.	8a\
.	.	.	8b\
.	.	.	8g\
=48-	=48-	=48-	=48-
.	.	2D/	2a\
.	.	1D	1ff
.	.	2E\	2ee\
=49	=49	=49	=49
0r	0r	2F\	4dd\
.	.	.	4cc\
.	.	2C/	2.cc\
.	.	2G\	.
.	.	.	8b\
.	.	.	8a\
.	.	2GG/	2b\
=50-	=50-	=50-	=50-
2r	2r	1C	1cc
4C\	4e\	.	.
4C\	4e\	.	.
4.BB/	4.d\	2r	2r
8BB/	8d\	.	.
4C\	4c/	4C/	4ee\
4CC/	4c/	4C/	4ee\
=51	=51	=51	=51
2GG/	2G/	4.BB/	4.dd\
.	.	8BB/	8dd\
4C\	4e\	4C/	4cc\
4C\	4e\	4C/	4cc\
4.BB/	4.d\	2GG/	2dd\
8BB/	8d\	.	.
4C\	4c/	4C/	4ee\
4CC/	4c/	4C/	4ee\
=52-	=52-	=52-	=52-
2GG/	2G/	4.BB/	4.dd\
.	.	8BB/	8dd\
4C\	4e\	4C/	4cc\
4C\	4e\	4C/	4cc\
4.BB/	4.d\	2GG/	2dd\
8BB/	8d\	.	.
4C\	4c/	2r	2r
4CC/	4c/	.	.
=53	=53	=53	=53
2GG/	2B/	0r	0r
1GG	1d	.	.
2EE/	2e\	.	.
=54-	=54-	=54-	=54-
2DD/	2f\	1r	1r
2AA/	2e\	.	.
1DD	1d	2r	2r
.	.	4D/	4ff\
.	.	4D/	4ff\
=55	=55	=55	=55
2r	2r	4.C#X/	4.ee\
.	.	8C#/	8ee\
4D\	4f\	4D/	4dd\
4D\	4f\	4D/	4dd\
4.C#X\	4.e\	2AA/	2ee\
8C#\	8e\	.	.
4D\	4d\	4D/	4ff\
4DD/	4d\	4D/	4ff\
*custos:AA	*custos:A	*custos:C#	*custos:e
!LO:LB:g=original	!LO:LB:g=original	!LO:LB:g=original	!LO:LB:g=original
=56-	=56-	=56-	=56-
2AA/	2A/	4.C#X/	4.ee\
.	.	8C#/	8ee\
4D\	4f\	4D/	4dd\
4D\	4f\	4D/	4dd\
4.C#X\	4.e\	2AA/	2ee\
8C#\	8e\	.	.
4D\	4d\	2r	2r
!LO:TX:t=P:problem=zanotowana poprawka	!	!	!
4DD/	4d\	.	.
=57	=57	=57	=57
1AA	2c#X/	2r	2r
.	2r	1G	1cc
1r	1r	.	.
.	.	2F\	2dd\
=58-	=58-	=58-	=58-
0r	0r	2E\	2ee\
.	.	2E\	2ee\
.	.	2D/	2a\
.	.	[<2D\	[<2dd\
=59	=59	=59	=59
0r	0r	2D\]	2dd\]
.	.	2AA/	2cc\
.	.	2BB/	2b\
.	.	2GG/	2b\
=60-	=60-	=60-	=60-
1r	1r	1D	1a
2r	2r	1GG	1b
[>2EE/	[>2g\	.	.
=61	=61	=61	=61
2EE/]	2g\]	0r	0r
2FF/	2f\	.	.
2CC/	2e\	.	.
2DD/	2.d\	.	.
=62-	=62-	=62-	=62-
2.EE/	.	0r	0r
.	4c/	.	.
.	2.c/	.	.
4FF/	.	.	.
1GG	.	.	.
.	8B/	.	.
.	8A/	.	.
.	2B/	.	.
=63	=63	=63	=63
2CC/	2c/	2r	2r
1CC	1g	1C	1ee
2GG/	2g\	2BB/	2dd\
=64-	=64-	=64-	=64-
2CC/	2e\	2C/	2cc\
2GG/	2d\	2D/	2b\
[>1CC	2.e\	[<1C	4cc\
.	.	.	4g/
.	.	.	4cc\
.	4d\	.	4dd\
=65	=65	=65	=65
0CC]	2.c/	0C]	2.ee\
.	4d\	.	4dd\
.	1e	.	4cc\
.	.	.	4g/
.	.	.	1cc\
=66-	=66-	=66-	=66-
[0GGl	[0dl	[0Dl	.
.	.	.	4b\
.	.	.	4a\
.	.	.	[1bl
=67	=67	=67	=67
0GG]	0d]	0D]	0b]
==	==	==	==
*-	*-	*-	*-
!!!system-decoration: g1
!!!RDF**kern: > = above
!!!RDF**kern: < = below
!!!RDF**kern: l = terminal long
!!!ENC: Anastazja Marusiak
!!!END: 2021-12-16
!!!EED: Jędrzej Mróz
!!!EEV: 2021-12-21
!!!YEC: Copyright 2022 Narodowy Instytut Fryderyka Chopina (https://polishscores.org)
!!!YEM: Licence CC BY 4.0 (https://creativecommons.org/licenses/by/4.0)
